<?xml version="1.0" encoding="UTF-8"?>
<map version="1.10" tiledversion="1.12.2" orientation="orthogonal" renderorder="right-down" width="53" height="30" tilewidth="32" tileheight="32" infinite="0" nextlayerid="5" nextobjectid="4">
 <imagelayer id="2" name="fondoHub" offsetx="0" offsety="0.00520833">
  <image source="../Tilesets/hubFondo.png" width="1707" height="960"/>
 </imagelayer>
 <objectgroup id="4" name="colisiones" locked="1">
  <object id="3" name="colisiones" x="-4" y="844" width="1706" height="114"/>
 </objectgroup>
</map>
